lib/logo_tmp/nrk-logo-nrk-yr-radio-with-bg.svg

<svg width="75" height="28" viewBox="0 0 75 28" fill="none" xmlns="http://www.w3.org/2000/svg">
<rect width="74.6667" height="28" fill="#D9E9FF"/>
<path d="M6.66663 21.0001V7.00135H11.26V21.0001H6.66663ZM17.5094 9.22932L20.151 21.0001H15.124L11.9697 7.00135H14.7892C15.4357 6.99296 16.063 7.22087 16.5535 7.6422C17.0449 8.04586 17.3824 8.60623 17.5094 9.22932ZM20.8411 21.0001V7.00135H25.4345V21.0001H20.8411ZM28.9038 12.3249C28.4089 12.3297 27.9218 12.2002 27.4946 11.9502C27.073 11.7066 26.7229 11.3564 26.4793 10.9348C26.229 10.5075 26.0995 10.0203 26.1044 9.52512C26.0988 9.03295 26.2284 8.54869 26.4793 8.12525C26.7255 7.70824 27.0752 7.36186 27.4946 7.11969C27.922 6.87 28.4089 6.74052 28.9038 6.74503C29.3959 6.73973 29.8799 6.86933 30.3035 7.11969C30.7187 7.36398 31.0647 7.71007 31.309 8.12525C31.5596 8.54881 31.6892 9.03299 31.6838 9.52512C31.6884 10.0203 31.5589 10.5073 31.309 10.9348C31.0673 11.3545 30.7209 11.7044 30.3035 11.9502C29.8799 12.2011 29.3955 12.3307 28.9032 12.3249H28.9038ZM32.3935 21.0001V7.00135H36.9873V21.0001H32.3935ZM42.8027 14.6514C42.8156 14.6649 42.9141 14.8259 43.0983 15.1344C43.2826 15.4429 43.5224 15.8372 43.8179 16.3174C44.1136 16.7974 44.4257 17.3067 44.754 17.8454C45.0824 18.3841 45.3913 18.8935 45.6809 19.3735C45.9694 19.8535 46.298 20.3957 46.6666 21.0001H41.6198C41.3041 20.4875 41.0181 20.0241 40.7618 19.6101C40.5056 19.196 40.2331 18.7491 39.9444 18.2693C39.6551 17.79 39.369 17.3234 39.0862 16.8695C38.8034 16.4155 38.5604 16.018 38.3571 15.6766C38.153 15.3351 38.0116 15.1051 37.9329 14.9865C37.7379 14.6924 37.6225 14.3528 37.5981 14.0007C37.6176 13.6628 37.7263 13.3362 37.9132 13.054C37.992 12.9226 38.1366 12.6892 38.3469 12.3541C38.5572 12.0189 38.8036 11.6213 39.0862 11.1613C39.3688 10.7012 39.6549 10.2313 39.9444 9.75152C40.234 9.27175 40.5064 8.82152 40.7618 8.4009C41.0186 7.98072 41.3046 7.5141 41.6198 7.00103H46.6666L42.7629 13.3695C42.6421 13.5586 42.574 13.7765 42.5657 14.0007C42.5787 14.2361 42.6609 14.4625 42.8019 14.6514H42.8027Z" fill="#0A2343"/>
<circle cx="59" cy="14" r="10" fill="white"/>
<path d="M63.2388 11.8358H61.779C61.5604 11.8387 61.3516 11.9269 61.197 12.0815C61.0425 12.2361 60.9544 12.445 60.9515 12.6636V14.7801C61.2136 14.6641 61.4933 14.593 61.779 14.5698H63.3884C63.5811 14.5793 63.7736 14.5499 63.9546 14.4833C64.1356 14.4168 64.3014 14.3146 64.4421 14.1827C64.5738 14.0419 64.6759 13.8761 64.7424 13.6952C64.8089 13.5142 64.8384 13.3217 64.8292 13.1291C64.8383 12.9537 64.8064 12.7786 64.736 12.6177C64.6656 12.4568 64.5587 12.3146 64.4237 12.2023C64.0826 11.9475 63.6641 11.8181 63.2388 11.8358Z" fill="#00B8F1"/>
<path d="M58.9998 3.66675C56.2593 3.66675 53.631 4.75544 51.6931 6.69328C49.7553 8.63113 48.6666 11.2594 48.6666 13.9999C48.6666 16.7405 49.7553 19.3688 51.6931 21.3067C53.631 23.2446 56.2592 24.3333 58.9998 24.3334C61.7404 24.3334 64.3688 23.2447 66.3067 21.3068C68.2446 19.3689 69.3333 16.7405 69.3333 13.9999C69.3332 11.2594 68.2445 8.63108 66.3066 6.69324C64.3687 4.75541 61.7404 3.66675 58.9998 3.66675ZM58.2217 15.8723C58.2143 18.0798 56.6316 18.7818 56.028 19.1328L54.988 17.8747L55.0121 17.8627L54.988 17.834C55.3225 17.6666 56.5648 17.0291 56.5648 16.0526V15.3155C56.3938 15.6626 55.5086 16.0555 54.9067 16.0655H54.8402C53.9836 16.0668 53.1576 15.7474 52.5246 15.1703C52.1914 14.8474 51.9293 14.4585 51.7552 14.0284C51.5811 13.5983 51.4988 13.1365 51.5136 12.6727V10.4468H53.1282V12.6727C53.1282 13.9677 54.0237 14.4393 54.8738 14.4513C55.618 14.4409 56.5513 14.1183 56.5835 13.1208V10.4455H58.2201L58.2217 15.8723ZM65.2337 17.2427C65.3228 17.3359 65.4347 17.4043 65.5583 17.4412C65.6819 17.478 65.813 17.482 65.9386 17.4527L65.9363 18.7912H64.9569C64.9456 18.7912 64.9347 18.7931 64.9247 18.7931C64.9147 18.7931 64.9017 18.7931 64.8901 18.7912H64.854V18.7892C64.6631 18.7734 64.4836 18.692 64.3459 18.5589L62.4403 16.2246H61.7806C61.5619 16.2275 61.3531 16.3157 61.1985 16.4704C61.0439 16.6251 60.9559 16.834 60.9531 17.0527V18.7912H59.2982V12.6634C59.2991 12.0052 59.5608 11.3741 60.0261 10.9085C60.4914 10.4428 61.1223 10.1807 61.7806 10.1794H63.2404C64.0517 10.1597 64.8444 10.4236 65.4821 10.9255C65.8035 11.1939 66.0607 11.531 66.2345 11.9119C66.4084 12.2929 66.4945 12.708 66.4867 13.1266C66.496 13.537 66.4236 13.9451 66.2738 14.3272C66.124 14.7093 65.8997 15.0579 65.614 15.3526C65.2545 15.709 64.809 15.9665 64.3207 16.1C64.3207 16.1 64.8795 16.8633 65.2337 17.2414V17.2427Z" fill="#00B8F1"/>
</svg>

<svg xmlns="http://www.w3.org/2000/svg" viewBox="0 0 75 28"><path fill="#D9E9FF" d="M0 0h74.667v28H0z"/><path fill="#0A2343" d="M6.667 21V7.001h4.593v14H6.667ZM17.509 9.23 20.151 21h-5.027L11.97 7.001h2.82a2.655 2.655 0 0 1 1.764.641c.49.404.828.964.955 1.587ZM20.841 21V7.001h4.593v14h-4.593Zm8.063-8.675a2.738 2.738 0 0 1-1.41-.375 2.777 2.777 0 0 1-1.015-1.015 2.735 2.735 0 0 1-.375-1.41 2.686 2.686 0 0 1 .375-1.4 2.812 2.812 0 0 1 3.825-1.005c.415.244.76.59 1.005 1.005.25.424.38.908.375 1.4.004.495-.125.982-.375 1.41a2.8 2.8 0 0 1-1.006 1.015c-.423.251-.908.38-1.4.375ZM32.394 21V7.001h4.593v14h-4.593Zm10.409-6.349c.013.014.111.175.295.483.185.309.424.703.72 1.183a373.133 373.133 0 0 1 1.863 3.056c.288.48.617 1.023.986 1.627H41.62a712.71 712.71 0 0 0-.858-1.39 127.3 127.3 0 0 1-.818-1.34c-.289-.48-.575-.947-.858-1.4a71.117 71.117 0 0 1-.729-1.193 20.869 20.869 0 0 0-.424-.69 2.039 2.039 0 0 1-.335-.986c.02-.338.128-.665.315-.947.079-.131.224-.365.434-.7a209.23 209.23 0 0 0 1.598-2.603c.289-.48.561-.93.817-1.35L41.62 7h5.047l-3.904 6.369c-.12.189-.189.407-.197.63.013.236.095.463.236.651Z"/><circle cx="59" cy="14" r="10" fill="#fff"/><path fill="#00B8F1" d="M63.239 11.836h-1.46a.839.839 0 0 0-.828.828v2.116c.263-.116.542-.187.828-.21h1.61a1.435 1.435 0 0 0 1.053-.387 1.442 1.442 0 0 0 .387-1.054 1.13 1.13 0 0 0-.405-.927 1.851 1.851 0 0 0-1.185-.366Z"/><path fill="#00B8F1" d="M59 3.667a10.333 10.333 0 1 0 0 20.667 10.333 10.333 0 0 0 0-20.667Zm-.778 12.205c-.008 2.208-1.59 2.91-2.194 3.26l-1.04-1.257.024-.012-.024-.029c.334-.167 1.577-.805 1.577-1.781v-.738c-.171.348-1.056.74-1.658.75h-.067a3.43 3.43 0 0 1-2.315-.895 3.33 3.33 0 0 1-1.011-2.497v-2.226h1.614v2.226c0 1.295.896 1.766 1.746 1.778.744-.01 1.677-.333 1.71-1.33v-2.676h1.636l.002 5.427Zm7.012 1.37a.743.743 0 0 0 .705.21l-.003 1.34h-.98l-.031.001c-.01 0-.023 0-.035-.002h-.036v-.002a.83.83 0 0 1-.508-.23l-1.906-2.334h-.66a.839.839 0 0 0-.827.828v1.738h-1.655v-6.128a2.487 2.487 0 0 1 2.483-2.484h1.46a3.488 3.488 0 0 1 2.241.746 2.8 2.8 0 0 1 1.005 2.202 3.097 3.097 0 0 1-.873 2.226c-.36.356-.805.614-1.293.747 0 0 .558.763.913 1.141v.002Z"/></svg>
